!!!!SEGMENT: pl-kk--kk-i-2--027-002_anonim--verbum-caro-factum-est-secunda-pars-plenum-gratia.krn
!!!cenid: 16xx:1646
!!!COM: Anonim
!!!COM-rismID: pe30004985
!!!CDT:
!!!CNT:
!!!OPR: Verbum caro factum est
!!!OTL: Secunda pars - Plenum gratia
!!!OMV: 002
!!!PDT:
!!!AGN: Sacred
!!!YEC: Copyright 2022 Narodowy Instytut Fryderyka Chopina (https://polishscores.org)
!!!YEM: License CC-BY-4.0 (https://creativecommons.org/licenses/by/4.0)
!!!SMS-siglum: PL-Kk
!!!SMS-shelfmark: Kk.I.2
!!!SMS-shelfwork: 027-002 M
!!!NIFC-rismSourceID: 300258016
!!!NIFC-rismChildID: 300258044
!!!NIFC-islandoraID: pl-kk:750
!!!URL-pdf-islandora: https://repozytorium.nifc.pl/islandora/object/pl-kk%3A750/datastream/PDF/view
!!!URL-scan: https://polish.musicsources.pl/pl/lokalizacje/galeria/rekopisy/5828 @EN{Scan on Polish Music Sources Website} @PL{Skany w portalu Dziedzictwo Muzyki Polskiej w otwartym dostępie}
!!!IIIF: https://repozytorium.nifc.pl/islandora/object/pl-kk%3A750/datastream/IIIF/view
!!!ONB-nifc: Części motetu: 1. Verbum caro factum est, 2. Plenum gratiae, 3. In principio erat verbum; skany: C: 0054; A: 0156; T: 0258; B: 0356;
!!!AIN: 1 alto 1 bass 1 soprn 1 tenor
!!!key: G:mix
**kern	**text	**kern	**text	**kern	**text	**kern	**text
*part4	*	*part3	*	*part2	*	*part1	*
*staff4	*	*staff3	*	*staff2	*	*staff1	*
*I"BASVS	*	*I"TENOR	*	*I"ALTVS	*	*I"DISCANTVS	*
*I'B	*	*I'T	*	*I'A	*	*I'S	*
*ICvox	*	*ICvox	*	*ICvox	*	*ICvox	*
*Ibass	*	*Itenor	*	*Ialto	*	*Isoprn	*
*clefF4	*	*clefC4	*	*clefC3	*	*clefC1	*
*G:mix	*	*G:mix	*	*G:mix	*	*G:mix	*
*k[]	*	*k[]	*	*k[]	*	*k[]	*
*M2/1	*	*M2/1	*	*M2/1	*	*M2/1	*
*met(C|)	*	*met(C|)	*	*met(C|)	*	*met(C|)	*
=1	=1	=1	=1	=1	=1	=1	=1
!!LO:TX:t=P:problem:metrum zapisane w trakcie poprzedzajcej Plenum gratia części	!	!	!	!	!	!	!
*xywh-#356:1609,2448,6153,934	*	*xywh-#258:1883,2994,5867,1053	*	*xywh-#156:1627,2186,6141,933	*	*xywh-#54:1740,2315,6123,931	*
1G	Ple-	0r	.	1r	.	0r	.
1G	-nu(m)	.	.	1d	Ple-	.	.
=2	=2	=2	=2	=2	=2	=2	=2
2.F\	gra-	0r	.	1d	-nu(m)	0r	.
4G\	-ti-	.	.	.	.	.	.
2.A\	-a	.	.	2.c\	gra-	.	.
4G\	et	.	.	4d\	.	.	.
=3	=3	=3	=3	=3	=3	=3	=3
2.E\	ve-	0r	.	2.e/	-ti-	0r	.
4F\	-ri-	.	.	8d/L	-a	.	.
.	.	.	.	8c/J	.	.	.
2.G\	-ta-	.	.	1B	.	.	.
4F\	-te	.	.	.	.	.	.
=4	=4	=4	=4	=4	=4	=4	=4
2D/	.	0r	.	2A/	.	0r	.
1G	.	.	.	2G/	.	.	.
.	.	.	.	1A	.	.	.
2F\	.	.	.	.	.	.	.
=5	=5	=5	=5	=5	=5	=5	=5
1G	.	0G	Ple-	2G/	.	0r	.
.	.	.	.	2B/	.	.	.
2C/	.	.	.	2c/	.	.	.
1E	.	.	.	2.B/	.	.	.
=6	=6	=6	=6	=6	=6	=6	=6
.	.	1G	-nu(m)	.	.	0r	.
.	.	.	.	4G/	.	.	.
4D/	.	.	.	1c	.	.	.
4C/	.	.	.	.	.	.	.
1D	.	1F	gra-	.	.	.	.
.	.	.	.	2B/	.	.	.
=7	=7	=7	=7	=7	=7	=7	=7
4C/	.	2.G/	-ti-	1c	et	0g	Ple-
4D/	.	.	.	.	.	.	.
4E/	.	.	.	.	.	.	.
4F/	.	4A/	-a	.	.	.	.
2G\	.	2B/	.	2B/	.	.	.
1C	.	1c	.	2.e/	ve-	.	.
=8	=8	=8	=8	=8	=8	=8	=8
.	.	.	.	.	.	0g	-nu(m)
.	.	.	.	4d/	-ri-	.	.
2D\	.	2B/	.	1d	-ta-	.	.
1E	.	4G/	.	.	.	.	.
.	.	4A/	.	.	.	.	.
.	.	4B/	.	2c/	-te	.	.
.	.	4c/	.	.	.	.	.
=9	=9	=9	=9	=9	=9	=9	=9
00D	.	2.d\	.	2d/	.	00f	gra-
.	.	.	.	2A/	.	.	.
.	.	4c\	.	.	.	.	.
.	.	2A/	.	2r	.	.	.
.	.	2.d\	.	1A	.	.	.
=10	=10	=10	=10	=10	=10	=10	=10
*custos:E	*	*	*	*	*	*	*
.	.	.	.	.	.	.	.
.	.	4c/	.	.	.	.	.
.	.	2B/	.	1.d	.	.	.
.	.	1A	.	.	.	.	.
!LO:LB:g=original	!	!	!	!	!	!	!
=11	=11	=11	=11	=11	=11	=11	=11
*xywh-#356:1602,3105,6181,989	*	*	*	*	*	*	*
1E	.	2.G/	.	2.B/	.	00g	.
*	*	*	*	*custos:d	*	*	*
.	.	4A/	.	4c/	.	.	.
!	!	!	!	!LO:LB:g=original	!	!	!
*	*	*	*	*xywh-#156:1640,2988,6148,857	*	*	*
2r	.	2B/	.	2d/	.	.	.
2.C/	.	1c	.	1e	.	.	.
=12	=12	=12	=12	=12	=12	=12	=12
.	.	.	.	.	.	.	.
4D/	.	.	.	.	.	.	.
4E\	.	4B/	.	4d/	.	.	.
4F\	.	4A/	.	4c/	.	.	.
2G\	.	2B/	.	2d/	.	.	.
*	*	*custos:F	*	*	*	*	*
2E\	.	2c/	.	2e\	.	.	.
!	!	!LO:LB:g=original	!	!	!	!	!
=13	=13	=13	=13	=13	=13	=13	=13
*	*	*xywh-#258:1800,3882,5900,970	*	*	*	*	*
2.A\	.	2.F/	.	2.c/	.	00a	.
4G\	.	4G/	.	8d\	.	.	.
.	.	.	.	8e\	.	.	.
4F\	.	1A	.	1f	.	.	.
4E\	.	.	.	.	.	.	.
1D	.	.	.	.	.	.	.
=14	=14	=14	=14	=14	=14	=14	=14
.	.	2r	.	1e	.	.	.
2C/	.	2A/	.	.	.	.	.
1D	.	2A/	.	2.d/	.	.	.
.	.	2A/	.	.	.	.	.
.	.	.	.	4D/	.	.	.
=15	=15	=15	=15	=15	=15	=15	=15
0r	.	1B-X	.	2d/	.	2.f/	.
.	.	.	.	1d	.	.	.
.	.	.	.	.	.	4d/	.
.	.	1A	.	.	.	1e	-ci-
.	.	.	.	2c/	.	.	.
=16	=16	=16	=16	=16	=16	=16	=16
2.D/	.	2.F/	.	2d/	.	0d	-a
.	.	.	.	2A/	.	.	.
4E/	.	4G/	.	.	.	.	.
2F\	.	2A/	.	1r	.	.	.
1G	.	1B	.	.	.	.	.
=17	=17	=17	=17	=17	=17	=17	=17
.	.	.	.	1r	.	1d	et
4F\	.	4A/	.	.	.	.	.
4E\	.	4G/	.	.	.	.	.
1D	.	1F	.	0A	.	1f	.
=18	=18	=18	=18	=18	=18	=18	=18
2.F\	.	2r	.	.	.	0c	ve-
.	.	1F	.	.	.	.	.
4E/	.	.	.	.	.	.	.
1C	.	.	.	1G	.	.	.
.	.	2E/	.	.	.	.	.
=19	=19	=19	=19	=19	=19	=19	=19
2F\	.	1F	.	2F/	.	1c	.
2A\	.	.	.	2c/	.	.	.
2.G\	.	2r	.	1B	.	0d	-ri-
.	.	1G/	.	.	.	.	.
4F\	.	.	.	.	.	.	.
=20	=20	=20	=20	=20	=20	=20	=20
1D	.	.	.	1A	.	.	.
.	.	2F/	.	.	.	.	.
2G\	.	1G	.	2G/	.	1d	.
2B#X\	.	.	.	2d/	.	.	.
=21	=21	=21	=21	=21	=21	=21	=21
2.A\	.	2r	.	1c	.	00e	.
.	.	1A	.	.	.	.	.
*custos:E	*	*	*	*	*	*	*
4G\	.	.	.	.	.	.	.
!LO:LB:g=original	!	!	!	!	!	!	!
*xywh-#356:1630,3901,6167,996	*	*	*	*	*	*	*
1E	.	.	.	1B	.	.	.
.	.	2G/	.	.	.	.	.
=22	=22	=22	=22	=22	=22	=22	=22
*	*	*	*	*lig	*	*	*
!	!	!	!	!LO:N:vis=0	!	!	!
1AA	.	1A	.	1c	.	.	.
!	!	!	!	!LO:N:vis=0	!	!	!
1E	.	1G	.	2.B/	.	.	.
*	*	*	*	*Xlig	*	*	*
.	.	.	.	4c/	.	.	.
=23	=23	=23	=23	=23	=23	=23	=23
*	*	*	*	*custos:d	*	*	*
2.D/	.	1.A	.	1d	.	1.f	.
4E/	.	.	.	.	.	.	.
!	!	!	!	!LO:LB:g=original	!	!	!
*	*	*	*	*xywh-#156:1668,3763,6154,1002	*	*	*
2F\	.	.	.	2d/	.	.	.
1C	.	1G	.	1c	.	2.e/	.
=24	=24	=24	=24	=24	=24	=24	=24
.	.	.	.	.	.	.	.
.	.	.	.	.	.	4d/	.
2D/	.	2F/	.	2A/	.	1d	.
*	*	*custos:D	*	*	*	*	*
1AA	.	1E	.	1A	.	.	.
.	.	.	.	.	.	2c/	-ta-
!	!	!LO:LB:g=original	!	!	!	!	!
=25	=25	=25	=25	=25	=25	=25	=25
*	*	*xywh-#258:7756,596,6580,912	*	*	*	*	*
1D	.	1D	.	2r	.	0d	-te
.	.	.	.	2A/	.	.	.
1GG	.	1G	et	2.B/	.	.	.
.	.	.	.	4c/	.	.	.
=26	=26	=26	=26	=26	=26	=26	=26
1D	.	1A	.	2d\	.	1r	.
.	.	.	.	1d	.	.	.
1E	.	1G	.	.	.	1g	et
.	.	.	.	2c/	.	.	.
=27	=27	=27	=27	=27	=27	=27	=27
2D/	.	1F	ve-	2A/	.	1a	.
2F\	.	.	.	2.d\	.	.	.
1E	.	1G	-ri-	.	.	1g	.
.	.	.	.	8c/L	.	.	.
.	.	.	.	8B/J	.	.	.
.	.	.	.	2c/	.	.	.
=28	=28	=28	=28	=28	=28	=28	=28
*	*	*	*	*	*	*custos:a	*
1D	.	0A	-ta-	1d	.	0f	ve-
2.F\	.	.	.	1c	.	.	.
4E\	.	.	.	.	.	.	.
!	!	!	!	!	!	!LO:LB:g=original	!
=29	=29	=29	=29	=29	=29	=29	=29
*	*	*	*	*	*	*xywh-#54:1726,3017,6047,931	*
1D	.	1A	-te	1f	.	00a	.
2C/	.	2r	.	2e\	.	.	.
1D	.	2.F/	.	1f	.	.	.
=30	=30	=30	=30	=30	=30	=30	=30
.	.	.	.	.	.	.	.
.	.	4G/	.	.	.	.	.
4C/	.	4A/	.	4e\	.	.	.
4BB/	.	4B/	.	4d\	.	.	.
2AA/	.	2c/	.	2c/	.	.	.
2D/	.	2F/	.	2d/	.	.	.
=31	=31	=31	=31	=31	=31	=31	=31
1.C	.	0.G	.	0e	.	0cc	.
2D/	.	.	.	.	.	.	.
=32	=32	=32	=32	=32	=32	=32	=32
4E/	.	.	.	2B/	.	1b	.
4D/	.	.	.	.	.	.	.
4C/	.	.	.	2d/	.	.	.
4BB/	.	.	.	.	.	.	.
2AA/	.	2r	.	2A/	.	1cc	.
2C/	.	1E	.	1A	.	.	.
=33	=33	=33	=33	=33	=33	=33	=33
*custos:AA	*	*	*	*	*	*	*
1BB	.	.	.	.	.	1dd	.
.	.	2D/	.	2G/	.	.	.
!LO:LB:g=original	!	!	!	!	!	!	!
*xywh-#356:7728,721,6644,906	*	*	*	*	*	*	*
1AA	.	2.E/	.	1A	.	1cc	.
.	.	4F/	.	.	.	.	.
=34	=34	=34	=34	=34	=34	=34	=34
1E	.	1G	.	2.B/	.	1b	.
.	.	.	.	4c/	.	.	.
1F	.	1A	.	2d/	.	1a	.
*	*	*	*	*custos:e	*	*	*
.	.	.	.	2c/	.	.	.
!	!	!	!	!LO:LB:g=original	!	!	!
=35	=35	=35	=35	=35	=35	=35	=35
*	*	*	*	*xywh-#156:7767,581,6604,905	*	*	*
0C	.	1G	.	0e	.	1cc	.
.	.	2.c/	.	.	.	1g	.
.	.	4B/	.	.	.	.	.
=36	=36	=36	=36	=36	=36	=36	=36
1F	.	1A	.	1c	.	1a	.
2G\	.	2r	.	2B/	.	2b\	.
2.A\	.	2c/	.	2e/	.	2.cc\	.
=37	=37	=37	=37	=37	=37	=37	=37
.	.	1A	.	2.c/	.	.	.
4G\	.	.	.	.	.	4b\	.
2F/	.	.	.	.	.	2a\	.
.	.	.	.	4d/	.	.	.
1E	.	2B/	.	2e/	.	1g	.
.	.	1c	.	1e	.	.	.
=38	=38	=38	=38	=38	=38	=38	=38
0F	.	.	.	.	.	0a	.
.	.	4B/	.	4d/	.	.	.
.	.	4A/	.	4c/	.	.	.
*	*	*custos:B	*	*	*	*	*
.	.	1A	.	1d	.	.	.
!	!	!LO:LB:g=original	!	!	!	!	!
=39	=39	=39	=39	=39	=39	=39	=39
*	*	*xywh-#258:7745,1476,6614,871	*	*	*	*	*
2.E/	.	1B	.	1e	.	2.g/	.
4D/	.	.	.	.	.	4f/	.
2C/	.	2c\	.	2r	.	2e/	.
2.G\	.	1B	.	1B	.	1d	.
=40	=40	=40	=40	=40	=40	=40	=40
.	.	.	.	.	.	.	.
4F/	.	.	.	.	.	.	.
2E/	.	4A/	.	2c/	.	2.g/	-ri-
.	.	4G/	.	.	.	.	.
1D	.	1A	.	1d	.	.	.
.	.	.	.	.	.	4f/	.
.	.	.	.	.	.	4f/	-ta-
.	.	.	.	.	.	8e/L	-te
.	.	.	.	.	.	8f/J	.
=41	=41	=41	=41	=41	=41	=41	=41
*	*	*	*	*lig	*	*	*
!	!	!	!	!	!	!LO:TX:t=P:problem= w źródle longa bez kropki	!
!	!	!LO:TX:t=P:problem= w źródle longa bez kropki	!	!LO:N:vis=0	!	!	!
!	!	!LO:N:vis=00	!	!	!LO:N:vis=00	!	!
1GG	.	00.G;\	.	1B	.	00.g	.
!	!	!	!	!LO:N:vis=0.	!	!	!
1.C	.	.	.	1.e	.	.	.
*	*	*	*	*Xlig	*	*	*
=42	=42	=42	=42	=42	=42	=42	=42
.	.	.	.	.	.	.	.
2BB/	.	.	.	2d/	.	.	.
1C	.	.	.	1e	.	.	.
=43	=43	=43	=43	=43	=43	=43	=43
*custos:D	*	*	*	*custos:d	*	*custos:a	*
0GG;	.	.	.	0d;	.	.	.
==	==	==	==	==	==	==	==
*-	*-	*-	*-	*-	*-	*-	*-
!!!system-decoration: [(s1,s2,s3,s4)]
!!!ENC: Filip Voros
!!!END: 2022-01-14
!!!ENC: Natalia Wrzos
!!!END: 2022-01-22
!!!ENC-iiif: Natalia Wrzos
!!!END-iiif: 2022-09-02
